X: 88
T: TRUE LOVE CAN NE'ER FORGET
B: O'Neill's 88
M:  2/4
L: 1/8
Z: Transcribed by John Chambers <jc@trillian.mit.edu>
N: "Moderate"
K:G
D \
| G2 (AB) | A>G Ez | D2 (GB) | (d>c) A2 \
| G2 (AB) | A>G Ez | D2 (B>A) | G2 z ||
|| d \
| d>d cB | c>B A2 | B>B AG | A>G F2 \
| GG A>G | (FB) (Ad) | (^cB) (A>F) | D2 (EF) |
| G2 (AB) | A>G Ez | D2 (GB) | d>c Az \
| G2 (AB) | {B}A>G Ez | DB {B}A>G | G2 z||


